src/images/logo.svg

<svg width="38" height="38" viewBox="0 0 38 38" fill="none" xmlns="http://www.w3.org/2000/svg">
<path fill-rule="evenodd" clip-rule="evenodd" d="M19 38C29.4934 38 38 29.4934 38 19C38 8.50659 29.4934 0 19 0C8.50659 0 0 8.50659 0 19C0 29.4934 8.50659 38 19 38Z" fill="#3DDC84"/>
<path d="M14.8072 21.3303C15.491 21.3303 16.2108 21.6239 17.0026 22.2477C17.9743 23.0183 18.6221 23.3853 18.982 23.3853C19.5219 23.3853 19.7738 23.0917 19.7738 22.5413C19.7738 22.2477 19.6298 21.9908 19.3059 21.7706C19.126 21.6606 18.2262 21.2936 16.5347 20.7064C13.7995 19.7156 12.4319 17.9174 12.4319 15.2385C12.4319 13.2202 13.1517 11.6422 14.5913 10.5046C15.8869 9.51376 17.4344 9 19.3059 9C20.9254 9 22.329 9.40367 23.5167 10.1743C24.7044 10.945 25.3162 11.9725 25.3162 13.2202C25.3162 13.9541 25.1003 14.578 24.6324 15.0917C24.1645 15.6055 23.5887 15.8257 22.8689 15.8257C22.1131 15.8257 21.2853 15.4587 20.3496 14.7248C19.7738 14.2844 19.3419 14.0275 19.054 14.0275C18.5501 14.0275 18.2982 14.2844 18.2982 14.7615C18.2982 15.2385 18.91 15.6789 20.1697 16.0459C21.8972 16.5963 23.1928 17.2569 24.1285 18.0642C25.3882 19.1284 26 20.5963 26 22.5046C26 24.5963 25.3162 26.211 23.9126 27.3853C22.617 28.4862 20.9254 29 18.838 29C16.7506 29 15.0231 28.4495 13.6555 27.3119C12.5758 26.3945 12 25.367 12 24.156C12 23.3486 12.2519 22.6881 12.7918 22.1376C13.3676 21.6239 14.0154 21.3303 14.8072 21.3303Z" fill="white"/>
</svg>

<svg width="38" height="38" fill="none" xmlns="http://www.w3.org/2000/svg"><path fill-rule="evenodd" clip-rule="evenodd" d="M19 38a19 19 0 1 0 0-38 19 19 0 0 0 0 38Z" fill="#3DDC84"/><path d="M14.8 21.33c.7 0 1.41.3 2.2.92.97.77 1.62 1.14 1.98 1.14.54 0 .8-.3.8-.85 0-.3-.15-.55-.47-.77-.18-.1-1.08-.48-2.78-1.06-2.73-1-4.1-2.8-4.1-5.47 0-2.02.72-3.6 2.16-4.74A7.5 7.5 0 0 1 19.31 9c1.62 0 3.02.4 4.2 1.17 1.2.78 1.8 1.8 1.8 3.05 0 .73-.21 1.36-.68 1.87-.47.52-1.04.74-1.76.74-.76 0-1.58-.37-2.52-1.1-.58-.45-1-.7-1.3-.7-.5 0-.75.25-.75.73s.61.92 1.87 1.29c1.73.55 3.02 1.2 3.96 2.01A5.47 5.47 0 0 1 26 22.5c0 2.1-.68 3.71-2.09 4.89-1.3 1.1-2.98 1.61-5.07 1.61a7.82 7.82 0 0 1-5.18-1.69C12.58 26.4 12 25.37 12 24.16c0-.81.25-1.47.8-2.02.57-.52 1.22-.81 2-.81Z" fill="#fff"/></svg>
